X: 43275
T: Woo'd An' Merried An' Aa
R: jig
M: 6/8
K: Gmajor
g|d2 c B c A|G2 G G2 A|B2 d d e B|d2 d d2 g|
d2 c B c A|G2 G G2 F|E2 e e f d|e3 e2:|
|:d|d2 g g a f|g3 B2 c|d2 d d e B|d3 d2 g|
d2 c B c A|G2 G G2 F|E2 e e f d|e3 e2:|

